static/img/kroki/949edc6e080d75cc66610d7792f672e9.svg

<?xml version="1.0" encoding="us-ascii" standalone="no"?><svg xmlns="http://www.w3.org/2000/svg" xmlns:xlink="http://www.w3.org/1999/xlink" contentStyleType="text/css" height="374px" preserveAspectRatio="none" style="width:434px;height:374px;" version="1.1" viewBox="0 0 434 374" width="434px" zoomAndPan="magnify"><defs/><g><!--class aws_cloudfront_field_level_encryption_config--><g id="elem_aws_cloudfront_field_level_encryption_config"><rect codeLine="23" fill="#3D176E" height="39.7891" id="aws_cloudfront_field_level_encryption_config" rx="2.5" ry="2.5" style="stroke:#000D19;stroke-width:0.5;" width="420" x="7" y="328.58"/><ellipse cx="22" cy="348.4745" fill="#ADD1B2" rx="11" ry="11" style="stroke:#181818;stroke-width:1.0;"/><path d="M24.9688,354.1152 Q24.3906,354.412 23.75,354.5527 Q23.1094,354.7089 22.4063,354.7089 Q19.9063,354.7089 18.5781,353.0683 Q17.2656,351.412 17.2656,348.287 Q17.2656,345.162 18.5781,343.5058 Q19.9063,341.8495 22.4063,341.8495 Q23.1094,341.8495 23.75,342.0058 Q24.4063,342.162 24.9688,342.4589 L24.9688,345.1777 Q24.3438,344.5995 23.75,344.3339 Q23.1563,344.0527 22.5313,344.0527 Q21.1875,344.0527 20.5,345.1308 Q19.8125,346.1933 19.8125,348.287 Q19.8125,350.3808 20.5,351.4589 Q21.1875,352.5214 22.5313,352.5214 Q23.1563,352.5214 23.75,352.2558 Q24.3438,351.9745 24.9688,351.3964 L24.9688,354.1152 Z " fill="#000000"/><text fill="#D9B8FF" font-family="Helvetica" font-size="17" lengthAdjust="spacing" textLength="378" x="41" y="354.3598">aws_cloudfront_field_level_encryption_config</text></g><!--class aws_resource--><g id="elem_aws_resource"><rect codeLine="26" fill="#3D176E" height="39.7891" id="aws_resource" rx="2.5" ry="2.5" style="stroke:#000D19;stroke-width:0.5;" width="155" x="139.5" y="167.79"/><ellipse cx="154.5" cy="187.6845" fill="#ADD1B2" rx="11" ry="11" style="stroke:#181818;stroke-width:1.0;"/><path d="M157.4688,193.3252 Q156.8906,193.622 156.25,193.7627 Q155.6094,193.9189 154.9063,193.9189 Q152.4063,193.9189 151.0781,192.2783 Q149.7656,190.622 149.7656,187.497 Q149.7656,184.372 151.0781,182.7158 Q152.4063,181.0595 154.9063,181.0595 Q155.6094,181.0595 156.25,181.2158 Q156.9063,181.372 157.4688,181.6689 L157.4688,184.3877 Q156.8438,183.8095 156.25,183.5439 Q155.6563,183.2627 155.0313,183.2627 Q153.6875,183.2627 153,184.3408 Q152.3125,185.4033 152.3125,187.497 Q152.3125,189.5908 153,190.6689 Q153.6875,191.7314 155.0313,191.7314 Q155.6563,191.7314 156.25,191.4658 Q156.8438,191.1845 157.4688,190.6064 L157.4688,193.3252 Z " fill="#000000"/><text fill="#D9B8FF" font-family="Helvetica" font-size="17" lengthAdjust="spacing" textLength="113" x="173.5" y="193.5698">aws_resource</text></g><!--class resource--><g id="elem_resource"><rect codeLine="29" fill="#3D176E" height="39.7891" id="resource" rx="2.5" ry="2.5" style="stroke:#000D19;stroke-width:0.5;" width="113" x="160.5" y="7"/><ellipse cx="175.5" cy="26.8945" fill="#ADD1B2" rx="11" ry="11" style="stroke:#181818;stroke-width:1.0;"/><path d="M178.4688,32.5352 Q177.8906,32.832 177.25,32.9727 Q176.6094,33.1289 175.9063,33.1289 Q173.4063,33.1289 172.0781,31.4883 Q170.7656,29.832 170.7656,26.707 Q170.7656,23.582 172.0781,21.9258 Q173.4063,20.2695 175.9063,20.2695 Q176.6094,20.2695 177.25,20.4258 Q177.9063,20.582 178.4688,20.8789 L178.4688,23.5977 Q177.8438,23.0195 177.25,22.7539 Q176.6563,22.4727 176.0313,22.4727 Q174.6875,22.4727 174,23.5508 Q173.3125,24.6133 173.3125,26.707 Q173.3125,28.8008 174,29.8789 Q174.6875,30.9414 176.0313,30.9414 Q176.6563,30.9414 177.25,30.6758 Q177.8438,30.3945 178.4688,29.8164 L178.4688,32.5352 Z " fill="#000000"/><text fill="#D9B8FF" font-family="Helvetica" font-size="17" lengthAdjust="spacing" textLength="71" x="194.5" y="32.7798">resource</text></g><!--reverse link aws_resource to aws_cloudfront_field_level_encryption_config--><g id="link_aws_resource_aws_cloudfront_field_level_encryption_config"><path codeLine="32" d="M217,225.84 C217,256.36 217,297.69 217,328.25 " fill="none" id="aws_resource-backto-aws_cloudfront_field_level_encryption_config" style="stroke:#FFAF37;stroke-width:2.0;"/><polygon fill="none" points="217,207.84,211,225.84,223,225.84,217,207.84" style="stroke:#FFAF37;stroke-width:2.0;"/></g><!--reverse link resource to aws_resource--><g id="link_resource_aws_resource"><path codeLine="33" d="M217,65.05 C217,95.57 217,136.9 217,167.46 " fill="none" id="resource-backto-aws_resource" style="stroke:#FFAF37;stroke-width:2.0;"/><polygon fill="none" points="217,47.05,211,65.05,223,65.05,217,47.05" style="stroke:#FFAF37;stroke-width:2.0;"/></g><!--SRC=[bP3DQm8n4CNl-rS4F0jQQLNenGgblKYflIynUT5WDhDCiehz-D-hjPQuwmUzllURcVTcOJK4YZ9kH85Y1WvPM5fVIfQ5637JUaoEMBICaQRNhvkFvEDLO28BY2Uu5Q9LiawyBQnQUeGWRXBhGQhbdAdoUhy-ilHXQy77X1ex6S8eHhQpAY89euUpWJ5rihwqrTFT_XqQ6B46_oATJaTtXtNawgcBlV-8gNs7wAPFcr148sRZn0zrCUMEI48sYXxyinbVfDRMpyLjehtkCx477-dJXTIqtj56kf2U2H4CYfiIuqOh30VQz4_2p-VWJErU9-GwvCfHfGrlE-J6mkdSOGMNmolUbD6IpnLvO-VY8yk-aZb6e8eLKlrOEwBkFzljzhyEPYTc3rBs3G00]--></g></svg>

<svg xmlns="http://www.w3.org/2000/svg" width="434" height="374" viewBox="0 0 434 374"><rect width="420" height="39.789" x="7" y="328.58" fill="#3D176E" rx="2.5" ry="2.5" style="stroke:#000d19;stroke-width:.5"/><circle cx="22" cy="348.474" r="11" fill="#ADD1B2" style="stroke:#181818;stroke-width:1"/><path d="M24.969 354.115q-.578.297-1.219.438-.64.156-1.344.156-2.5 0-3.828-1.64-1.312-1.657-1.312-4.782t1.312-4.781q1.328-1.656 3.828-1.656.703 0 1.344.156.656.156 1.219.453v2.719q-.625-.579-1.219-.844-.594-.281-1.219-.281-1.343 0-2.031 1.078-.687 1.062-.687 3.156t.687 3.172q.688 1.062 2.031 1.062.625 0 1.219-.265.594-.281 1.219-.86z"/><text x="41" y="354.36" fill="#D9B8FF" font-family="Helvetica" font-size="17" textLength="378">aws_cloudfront_field_level_encryption_config</text><rect width="155" height="39.789" x="139.5" y="167.79" fill="#3D176E" rx="2.5" ry="2.5" style="stroke:#000d19;stroke-width:.5"/><circle cx="154.5" cy="187.685" r="11" fill="#ADD1B2" style="stroke:#181818;stroke-width:1"/><path d="M157.469 193.325q-.578.297-1.219.438-.64.156-1.344.156-2.5 0-3.828-1.64-1.312-1.657-1.312-4.782t1.312-4.781q1.328-1.656 3.828-1.656.703 0 1.344.156.656.156 1.219.453v2.719q-.625-.578-1.219-.844-.594-.281-1.219-.281-1.344 0-2.031 1.078-.687 1.062-.687 3.156t.687 3.172q.688 1.062 2.031 1.062.625 0 1.219-.265.594-.281 1.219-.86z"/><text x="173.5" y="193.57" fill="#D9B8FF" font-family="Helvetica" font-size="17" textLength="113">aws_resource</text><rect width="113" height="39.789" x="160.5" y="7" fill="#3D176E" rx="2.5" ry="2.5" style="stroke:#000d19;stroke-width:.5"/><circle cx="175.5" cy="26.895" r="11" fill="#ADD1B2" style="stroke:#181818;stroke-width:1"/><path d="M178.469 32.535q-.578.297-1.219.438-.64.156-1.344.156-2.5 0-3.828-1.64-1.312-1.657-1.312-4.782t1.312-4.781q1.328-1.656 3.828-1.656.703 0 1.344.156.656.156 1.219.453v2.719q-.625-.578-1.219-.844-.594-.281-1.219-.281-1.344 0-2.031 1.078-.687 1.062-.687 3.156t.687 3.172q.688 1.062 2.031 1.062.625 0 1.219-.265.594-.281 1.219-.86z"/><text x="194.5" y="32.78" fill="#D9B8FF" font-family="Helvetica" font-size="17" textLength="71">resource</text><path fill="none" d="M217 225.84v102.41m0-120.41-6 18h12zm0-142.79v102.41m0-120.41-6 18h12z" style="stroke:#ffaf37;stroke-width:2"/></svg>
